icons/mobile/24/svg/delete-24.svg

<svg width="24" height="24" viewBox="0 0 24 24" fill="none" xmlns="http://www.w3.org/2000/svg">
<path d="M9.87504 10C10.3583 10 10.75 10.3918 10.75 10.875V17.125C10.75 17.6082 10.3583 18 9.87504 18C9.39179 18 9.00004 17.6082 9.00004 17.125V10.875C9.00004 10.3918 9.39179 10 9.87504 10Z" fill="black"/>
<path d="M14.125 10C14.6083 10 15 10.3918 15 10.875V17.125C15 17.6082 14.6083 18 14.125 18C13.6418 18 13.25 17.6082 13.25 17.125V10.875C13.25 10.3918 13.6418 10 14.125 10Z" fill="black"/>
<path fill-rule="evenodd" clip-rule="evenodd" d="M12 2C12.7895 2 13.4987 2.08546 14.1055 2.20508C15.2297 2.42636 16 3.42399 16 4.53418V6.17871C17.3388 6.29745 18.7734 6.48311 20.2852 6.76465C20.7603 6.85312 21.0738 7.3101 20.9854 7.78516C20.8969 8.26022 20.4399 8.57379 19.9649 8.48535C19.8092 8.45637 19.654 8.43124 19.5 8.4043V18.5205C19.4998 20.0601 18.3844 21.3641 16.8672 21.6094C15.4502 21.8378 13.8143 22 12 22C10.6247 22 8.95876 21.9074 7.08793 21.6016C5.57243 21.3546 4.50025 20.0249 4.50004 18.5234V8.40332C4.34275 8.43084 4.18757 8.45698 4.03519 8.48535C3.56012 8.57379 3.10314 8.26023 3.01468 7.78516C2.92625 7.31008 3.2398 6.8531 3.71488 6.76465C4.98499 6.52818 6.42058 6.31981 8.00004 6.17969V4.53418C8.00004 3.38696 8.82128 2.41283 9.93558 2.19727L9.93656 2.19629C10.7506 2.03979 11.4595 2 12 2ZM12 7.75C9.88695 7.75 7.95798 7.90605 6.25004 8.13379V18.5234C6.25025 19.2012 6.73354 19.7715 7.36918 19.875C9.13229 20.1632 10.7034 20.25 12 20.25C13.7093 20.25 15.2512 20.0973 16.5879 19.8818L16.712 19.8555C17.3199 19.7004 17.7498 19.1561 17.75 18.5205V8.13086C15.6065 7.84507 13.6672 7.75 12 7.75ZM12 3.75C11.6599 3.75 11.24 3.76901 10.7627 3.83398L10.2676 3.91504C9.96439 3.97383 9.75004 4.2377 9.75004 4.53418V6.05566C10.4752 6.01957 11.2257 6 12 6C12.7049 6 13.4564 6.0191 14.25 6.05859V4.53418C14.25 4.22472 14.0369 3.97597 13.7676 3.92285C13.2584 3.82248 12.6625 3.75 12 3.75Z" fill="black"/>
</svg>

<!-- This Source Code Form is subject to the terms of the Mozilla Public
   - License, v. 2.0. If a copy of the MPL was not distributed with this
   - file, You can obtain one at http://mozilla.org/MPL/2.0/. -->
<svg xmlns="http://www.w3.org/2000/svg" width="24" height="24" fill="none" viewBox="0 0 24 24">
    <path fill="#000" d="M9.875 10c.483 0 .875.392.875.875v6.25a.875.875 0 1 1-1.75 0v-6.25c0-.483.392-.875.875-.875m4.25 0c.483 0 .875.392.875.875v6.25a.875.875 0 1 1-1.75 0v-6.25c0-.483.392-.875.875-.875" />
    <path fill="#000" fill-rule="evenodd" d="M12 2c.79 0 1.499.085 2.105.205C15.23 2.426 16 3.424 16 4.535v1.644c1.339.118 2.773.304 4.285.586a.875.875 0 0 1-.32 1.72q-.234-.042-.465-.08V18.52a3.13 3.13 0 0 1-2.633 3.09 30.6 30.6 0 0 1-9.78-.008C5.573 21.355 4.5 20.025 4.5 18.523V8.403l-.465.082a.875.875 0 0 1-.32-1.72A45 45 0 0 1 8 6.18V4.534c0-1.147.821-2.121 1.936-2.337A11 11 0 0 1 12 2m0 5.75c-2.113 0-4.042.156-5.75.384v10.39c0 .677.484 1.247 1.12 1.351a28.7 28.7 0 0 0 9.218.007l.124-.027a1.376 1.376 0 0 0 1.038-1.335V8.13A43.5 43.5 0 0 0 12 7.75m0-4c-.34 0-.76.019-1.237.084l-.495.081a.636.636 0 0 0-.518.62v1.52a45 45 0 0 1 4.5.004V4.534a.615.615 0 0 0-.482-.611A9 9 0 0 0 12 3.75" clip-rule="evenodd" />
</svg>
